src/assets/images/features-icon-1.svg

<svg width="53" height="54" viewBox="0 0 53 54" fill="none" xmlns="http://www.w3.org/2000/svg">
<path d="M10.5062 25.7746C10.5062 25.5714 10.5062 25.4246 10.5062 25.2778C10.5062 17.6459 10.5062 10.014 10.5062 2.37087C10.5062 1.44511 10.697 1.19674 11.595 1.04997C12.0664 0.97094 12.549 0.925781 13.0205 0.925781C21.9888 0.925781 30.9572 0.925781 39.9256 0.925781C40.2062 0.925781 40.4868 0.959651 40.7562 1.00481C41.4858 1.14029 41.6878 1.41124 41.8225 2.39345C41.8674 2.75472 41.9011 3.116 41.9011 3.47727C41.9011 10.7366 41.9011 17.9959 41.9011 25.2552V25.7633C42.0582 25.7633 42.1929 25.7633 42.3276 25.7633C44.1235 25.7633 45.9307 25.7407 47.7266 25.7633C48.7144 25.7859 49.7133 25.8197 50.6899 25.9778C51.846 26.1584 52.3735 26.61 51.3184 27.739C50.6225 28.4841 49.9041 29.2067 49.1858 29.9292C45.1562 33.9709 41.1154 38.0127 37.0858 42.0544C34.3807 44.7753 31.7092 47.5187 29.0041 50.2395C28.2184 51.0298 27.3766 51.7636 26.5797 52.5313C26.3215 52.7797 26.1082 52.791 25.8613 52.5539C24.9521 51.6959 24.0092 50.8604 23.1225 49.9686C20.5521 47.4058 17.9929 44.8204 15.4225 42.2463C11.2133 38.0127 7.00414 33.779 2.80618 29.5454C2.30107 29.0373 1.79597 28.5293 1.33577 27.9761C1.0776 27.6713 0.864338 27.31 0.707195 26.9374C0.49393 26.4407 0.875563 25.7746 1.52658 25.7859C4.35516 25.8084 7.18373 25.7633 10.0123 25.7407C10.147 25.7407 10.2929 25.7407 10.4837 25.7407L10.5062 25.7746ZM27.3429 35.9241C27.3429 35.4951 27.3429 35.1112 27.3429 34.7161C27.3429 34.0613 27.4439 33.9484 28.0501 33.779C28.4092 33.6774 28.7684 33.5871 29.1276 33.4629C30.7888 32.8871 32.0797 31.8823 32.6409 30.1437C32.9888 29.0599 33.0001 27.9535 32.8429 26.8358C32.6297 25.3004 31.8327 24.194 30.4409 23.5618C29.599 23.1892 28.7235 22.8844 27.8592 22.5796C26.6582 22.1618 25.4348 21.8006 24.245 21.3603C23.5715 21.1119 23.0215 20.6603 22.7521 19.9603C22.1909 18.504 22.898 16.8105 24.3235 16.1783C25.098 15.8396 25.8837 15.8622 26.7031 15.9638C28.1286 16.1331 29.0939 16.8782 29.5878 18.233C29.745 18.662 30.0031 19.012 30.4746 19.0346C31.0695 19.0459 31.6756 18.9668 32.2817 18.9104C32.495 18.8878 32.5511 18.741 32.4613 18.5491C32.1246 17.7814 31.8103 16.9911 31.4286 16.246C30.8001 14.9928 29.7899 14.1913 28.4429 13.83C28.3307 13.7961 28.2184 13.7623 28.1062 13.7171C27.5001 13.5252 27.3654 13.3445 27.3541 12.701C27.3541 12.3397 27.3541 11.9672 27.3541 11.6059C27.3541 11.4366 27.3541 11.2672 27.3541 11.0527H25.0868C25.0868 11.6624 25.0868 12.2268 25.0868 12.7913C25.0756 13.3897 24.9409 13.5477 24.3797 13.7058C24.1552 13.7735 23.9307 13.83 23.7062 13.909C21.9439 14.5412 20.6307 15.6251 20.148 17.5217C19.8899 18.5491 19.946 19.5991 20.0919 20.6377C20.2603 21.7893 20.8439 22.6586 21.8541 23.2005C22.5164 23.5618 23.2123 23.9005 23.9307 24.1263C25.2776 24.5553 26.647 24.8827 28.0052 25.2778C29.5766 25.7294 30.4297 26.8923 30.4184 28.518C30.4184 29.6357 29.8797 30.4372 28.9256 30.9679C27.9154 31.5211 26.8266 31.6001 25.6929 31.5436C24.0205 31.4759 22.9429 30.5953 22.2246 29.1502C22.0562 28.8002 21.9215 28.4277 21.7082 28.1116C21.4837 27.7616 21.1919 27.4567 20.9001 27.1519C20.8327 27.0729 20.6194 27.039 20.5297 27.0842C19.8899 27.4229 19.4745 27.9083 19.598 28.6873C19.6317 28.9583 19.6878 29.218 19.7664 29.4776C20.148 30.6405 20.6082 31.7469 21.6521 32.492C22.595 33.1807 23.6276 33.6435 24.8062 33.7339C25.0194 33.7452 25.098 33.8242 25.0868 34.0274C25.0868 34.5467 25.0868 35.0661 25.0868 35.5854C25.0868 35.6983 25.0868 35.8112 25.098 35.9241H27.3541H27.3429Z" fill="#1BC07D"/>
<path d="M34.7511 11.0527H19.5643V39.2207H34.7511V11.0527Z" fill="#1BC07D"/>
<path d="M32.8653 29.6468C32.3602 30.5161 31.6193 31.2387 30.6316 31.8032C29.6438 32.3677 28.4877 32.6951 27.1632 32.7967V35.1224H25.3336V32.7628C23.4255 32.5935 21.8989 32.0064 20.7316 31.0242C19.5642 30.0307 18.9693 28.6985 18.9357 27.0163H23.2234C23.3357 28.3937 24.0428 29.2291 25.3449 29.5226V24.0358C23.9755 23.6858 22.8642 23.3471 22.0336 22.9971C21.203 22.6472 20.4734 22.094 19.8561 21.3263C19.25 20.5586 18.9357 19.5086 18.9357 18.1877C18.9357 16.5168 19.5306 15.162 20.7204 14.1008C21.9102 13.0509 23.4479 12.4412 25.3336 12.2944V9.96875H27.1632V12.2944C28.9928 12.4525 30.452 13.0057 31.552 13.9653C32.652 14.925 33.2581 16.2459 33.3928 17.928H29.0714C29.0153 17.3748 28.8244 16.8894 28.4877 16.4717C28.151 16.0539 27.7132 15.7717 27.1632 15.5911V21.0214C28.5887 21.3827 29.7224 21.7327 30.553 22.0714C31.3836 22.4101 32.102 22.952 32.7081 23.7084C33.3142 24.4648 33.6285 25.5035 33.6285 26.8244C33.6285 27.8179 33.3704 28.7549 32.8653 29.6242V29.6468ZM23.6724 19.5312C24.054 19.9263 24.604 20.2424 25.3336 20.4908V15.512C24.6489 15.6136 24.0989 15.862 23.7061 16.291C23.302 16.7087 23.1 17.2845 23.1 17.9845C23.1 18.6167 23.2908 19.1248 23.6724 19.5199V19.5312ZM28.8581 28.6872C29.2734 28.2243 29.4755 27.6711 29.4755 27.0163C29.4755 26.3615 29.2734 25.876 28.8693 25.4922C28.4653 25.1083 27.8928 24.7922 27.152 24.5438V29.5791C27.8816 29.4436 28.4428 29.1501 28.8581 28.6872Z" fill="white"/>
</svg>

<svg xmlns="http://www.w3.org/2000/svg" width="53" height="54" fill="none"><path fill="#1BC07D" d="M10.506 25.775V2.37c0-.926.191-1.174 1.089-1.321A8.682 8.682 0 0 1 13.02.926h26.906c.28 0 .56.034.83.079.73.135.932.406 1.066 1.388.045.362.08.723.08 1.084V25.763h.426c1.795 0 3.603-.022 5.399 0 .987.023 1.986.057 2.963.215 1.156.18 1.684.632.628 1.761-.695.745-1.414 1.468-2.132 2.19-4.03 4.042-8.07 8.084-12.1 12.125-2.705 2.721-5.377 5.465-8.082 8.185-.786.79-1.627 1.525-2.424 2.292-.258.249-.472.26-.719.023-.909-.858-1.852-1.694-2.739-2.585-2.57-2.563-5.13-5.149-7.7-7.723-4.209-4.233-8.418-8.467-12.616-12.7-.505-.509-1.01-1.017-1.47-1.57a4.065 4.065 0 0 1-.629-1.039c-.213-.496.169-1.162.82-1.151 2.828.022 5.657-.023 8.485-.045h.472l.022.034Zm16.837 10.15v-1.209c0-.655.1-.768.707-.937.36-.102.718-.192 1.078-.316 1.66-.576 2.952-1.58 3.513-3.32.348-1.083.36-2.19.202-3.307-.213-1.536-1.01-2.642-2.402-3.274-.842-.373-1.717-.678-2.582-.982-1.2-.418-2.424-.78-3.614-1.22-.674-.248-1.224-.7-1.493-1.4-.561-1.456.146-3.15 1.572-3.782.774-.338 1.56-.316 2.38-.214 1.425.17 2.39.914 2.884 2.269.157.429.415.779.887.802.595.01 1.2-.068 1.807-.125.213-.022.27-.169.18-.36-.337-.769-.652-1.559-1.033-2.304-.629-1.253-1.64-2.055-2.986-2.416-.112-.034-.225-.068-.337-.113-.606-.192-.74-.373-.752-1.016V11.053h-2.267v1.738c-.011.599-.146.757-.707.915-.225.068-.45.124-.674.203-1.762.632-3.075 1.716-3.558 3.613-.258 1.027-.202 2.077-.056 3.116.168 1.151.752 2.02 1.762 2.563.662.36 1.358.7 2.077.925 1.347.43 2.716.757 4.074 1.152 1.572.451 2.425 1.614 2.413 3.24 0 1.118-.538 1.92-1.492 2.45-1.01.553-2.1.632-3.233.576-1.673-.068-2.75-.949-3.468-2.394-.169-.35-.303-.722-.517-1.038-.224-.35-.516-.655-.808-.96-.067-.08-.28-.113-.37-.068-.64.339-1.056.824-.932 1.603.034.271.09.531.168.79.382 1.163.842 2.27 1.886 3.015.943.689 1.976 1.152 3.154 1.242.213.011.292.09.28.293v1.558c0 .113 0 .226.012.34h2.256-.011Z"/><path fill="#1BC07D" d="M34.751 11.053H19.564V39.22h15.187V11.053Z"/><path fill="#fff" d="M32.865 29.647c-.505.87-1.246 1.592-2.233 2.156-.988.565-2.144.892-3.469.994v2.325h-1.83v-2.36c-1.907-.169-3.434-.756-4.601-1.738-1.168-.993-1.763-2.326-1.796-4.008h4.287c.113 1.378.82 2.213 2.122 2.507v-5.487c-1.37-.35-2.48-.689-3.311-1.039s-1.56-.903-2.178-1.67c-.606-.768-.92-1.818-.92-3.14 0-1.67.595-3.025 1.784-4.086 1.19-1.05 2.728-1.66 4.614-1.807V9.97h1.83v2.325c1.829.159 3.288.712 4.388 1.671 1.1.96 1.706 2.28 1.84 3.963h-4.32a2.697 2.697 0 0 0-.584-1.456c-.337-.418-.775-.7-1.325-.88v5.43c1.426.36 2.56.71 3.39 1.05.83.338 1.549.88 2.155 1.636.606.757.92 1.796.92 3.116 0 .994-.258 1.93-.763 2.8v.023ZM23.672 19.53c.382.395.932.711 1.662.96v-4.979c-.685.102-1.235.35-1.628.779-.404.418-.606.994-.606 1.694 0 .632.19 1.14.572 1.535v.011Zm5.186 9.156c.415-.463.617-1.016.617-1.67 0-.655-.202-1.141-.606-1.525-.404-.384-.976-.7-1.717-.948v5.035c.73-.135 1.29-.429 1.706-.892Z"/></svg>
